X:529
T:Highland Mary
D:Swarbrick, Lift the Lid and Listen
Z:Nigel Gatherer
M:2/4
L:1/16
K:A
A2 | A2BA GFE2 | A2Bc d2cd | e^def e=dcB | A2c2 E4  |
     A2BA GFE2 | A2Bc d2cd | e^def e=dcB | A2G2 A2 :|
A2 | ABcd e2e2 | fedc d2cd | e2ef  edcB | A2c2 E4  |
     A2BA GFE2 | A2Bc d2cd | e^def e=dcB | A2G2 A2 :|
